X: 1
T:Bourr\'ee
M:2/4
L:1/8
O:France
R:Bourr\'ee
K:Bb
d>BGA| B/A/B/c/ BG| d>BGA| B4 | d>BGA| B/A/B/c/ BG| d>BGA| B4 ::
B3c| d/c/d/e/ dg| fede| d/c/d/e/ d2| B3c| d/c/d/e/ dg| fedc| d4:|
